src/svgs/icon-audio-on-lined.svg

<svg viewBox="0 0 64 64" fill="none" xmlns="http://www.w3.org/2000/svg">
<g clip-path="url(#clip0_1_7)">
<path class="fill" fill-rule="evenodd" clip-rule="evenodd" d="M32.0001 0C26.109 0 21.3334 4.77563 21.3334 10.6667V32C21.3334 37.891 26.109 42.6667 32.0001 42.6667C37.8911 42.6667 42.6667 37.891 42.6667 32V10.6667C42.6667 4.77563 37.8911 0 32.0001 0ZM26.6667 10.6667C26.6667 7.72115 29.0546 5.33333 32.0001 5.33333C34.9456 5.33333 37.3334 7.72115 37.3334 10.6667V32C37.3334 34.9455 34.9456 37.3333 32.0001 37.3333C29.0546 37.3333 26.6667 34.9455 26.6667 32V10.6667Z"/>
<path class="fill" d="M16.0001 26.6667C16.0001 25.1939 14.8062 24 13.3334 24C11.8607 24 10.6667 25.1939 10.6667 26.6667V32C10.6667 42.879 18.8099 51.856 29.3334 53.1683V58.6667H21.3334C19.8607 58.6667 18.6667 59.8606 18.6667 61.3333C18.6667 62.8061 19.8607 64 21.3334 64H42.6667C44.1395 64 45.3334 62.8061 45.3334 61.3333C45.3334 59.8606 44.1395 58.6667 42.6667 58.6667H34.6667V53.1683C45.1902 51.856 53.3334 42.879 53.3334 32V26.6667C53.3334 25.1939 52.1395 24 50.6667 24C49.194 24 48.0001 25.1939 48.0001 26.6667V32C48.0001 40.8366 40.8366 48 32.0001 48C23.1635 48 16.0001 40.8366 16.0001 32V26.6667Z"/>
</g>
<defs>
<clipPath id="clip0_1_7">
<rect width="64" height="64" fill="white"/>
</clipPath>
</defs>
</svg>

<svg viewBox="0 0 64 64" fill="none" xmlns="http://www.w3.org/2000/svg"><g clip-path="url(#a)"><path class="fill" clip-rule="evenodd" d="M32 0C26.11 0 21.333 4.776 21.333 10.667V32c0 5.891 4.776 10.667 10.667 10.667S42.667 37.89 42.667 32V10.667C42.667 4.776 37.89 0 32 0Zm-5.333 10.667a5.333 5.333 0 0 1 10.666 0V32a5.333 5.333 0 0 1-10.666 0V10.667Z"/><path class="fill" d="M16 26.667a2.667 2.667 0 1 0-5.333 0V32c0 10.879 8.143 19.856 18.666 21.168v5.499h-8a2.667 2.667 0 0 0 0 5.333h21.334a2.667 2.667 0 1 0 0-5.333h-8v-5.499C45.19 51.856 53.333 42.88 53.333 32v-5.333a2.667 2.667 0 1 0-5.333 0V32c0 8.837-7.163 16-16 16s-16-7.163-16-16v-5.333Z"/></g><defs><clipPath id="a"><path fill="#fff" d="M0 0h64v64H0z"/></clipPath></defs></svg>
